flaticon/coffee-shop/coffee-cup-8.svg

<svg xmlns="http://www.w3.org/2000/svg" width="32" height="32" viewBox="0 0 24 24">
    <path d="M 23.039062 14.601562 L 22.738281 14.601562 L 23.238281 11.441406 C 23.28125 11.199219 23.199219 11 23.078125 10.839844 C 23.011719 10.753906 22.933594 10.6875 22.847656 10.644531 L 23.15625 8.199219 L 23.601562 8.199219 C 23.839844 8.199219 24 8.039062 24 7.800781 L 24 6.199219 C 24 5.960938 23.839844 5.800781 23.601562 5.800781 L 23 5.800781 L 21.640625 3.960938 C 21.558594 3.878906 21.441406 3.800781 21.320312 3.800781 L 15.160156 3.800781 C 15 3.800781 14.878906 3.878906 14.800781 4 L 13.777344 5.800781 L 13.199219 5.800781 C 12.960938 5.800781 12.800781 5.960938 12.800781 6.199219 L 12.800781 7.800781 C 12.800781 8.039062 12.960938 8.199219 13.199219 8.199219 L 13.644531 8.199219 L 13.949219 10.640625 C 13.851562 10.691406 13.761719 10.761719 13.679688 10.839844 C 13.558594 11 13.480469 11.199219 13.519531 11.441406 L 14.019531 14.601562 L 9.945312 14.601562 L 10.441406 11.480469 C 10.480469 11.238281 10.398438 11.039062 10.28125 10.878906 C 10.210938 10.792969 10.132812 10.726562 10.042969 10.683594 L 10.355469 8.199219 L 10.800781 8.199219 C 11.039062 8.199219 11.199219 8.039062 11.199219 7.800781 L 11.199219 6.199219 C 11.199219 5.960938 11.039062 5.800781 10.800781 5.800781 L 10.203125 5.800781 L 8.839844 3.960938 C 8.761719 3.878906 8.640625 3.800781 8.519531 3.800781 L 2.359375 3.800781 C 2.199219 3.800781 2.078125 3.878906 2 4 L 0.976562 5.800781 L 0.398438 5.800781 C 0.160156 5.800781 0 5.960938 0 6.199219 L 0 7.800781 C 0 8.039062 0.160156 8.199219 0.398438 8.199219 L 0.84375 8.199219 L 1.152344 10.660156 C 1.050781 10.699219 0.960938 10.757812 0.878906 10.839844 C 0.761719 11 0.679688 11.199219 0.71875 11.441406 L 1.222656 14.601562 L 0.960938 14.601562 C 0.441406 14.601562 0 15.039062 0 15.558594 L 0 16.039062 C 0 16.503906 0.351562 16.90625 0.800781 16.984375 L 0.800781 18.558594 C 0.800781 19.480469 1.519531 20.199219 2.441406 20.199219 L 8.761719 20.199219 C 9.679688 20.199219 10.398438 19.480469 10.398438 18.558594 L 10.398438 17 L 13.601562 17 L 13.601562 18.558594 C 13.601562 19.480469 14.359375 20.199219 15.238281 20.199219 L 21.558594 20.199219 C 22.480469 20.199219 23.199219 19.480469 23.199219 18.558594 L 23.199219 16.984375 C 23.648438 16.90625 24 16.503906 24 16.039062 L 24 15.558594 C 24 15.039062 23.558594 14.601562 23.039062 14.601562 Z M 23.199219 7.398438 L 13.601562 7.398438 L 13.601562 6.601562 L 13.820312 6.601562 C 13.875 6.625 13.933594 6.640625 14 6.640625 L 22.800781 6.601562 L 23.199219 6.601562 Z M 15.398438 4.601562 L 21.121094 4.601562 L 22 5.800781 L 14.742188 5.800781 Z M 22.359375 8.199219 L 22.046875 10.558594 L 14.753906 10.558594 L 14.441406 8.199219 Z M 14.320312 11.398438 L 22.480469 11.398438 L 21.960938 14.601562 L 14.839844 14.601562 Z M 2.601562 4.601562 L 8.320312 4.601562 L 9.199219 5.800781 L 1.902344 5.800781 Z M 0.800781 6.601562 L 1.019531 6.601562 C 1.074219 6.625 1.132812 6.640625 1.199219 6.640625 L 10 6.601562 L 10.398438 6.601562 L 10.398438 7.398438 L 0.800781 7.398438 Z M 9.558594 8.199219 L 9.238281 10.601562 L 1.960938 10.601562 L 1.640625 8.199219 Z M 1.519531 11.398438 L 9.679688 11.398438 L 9.160156 14.601562 L 2.039062 14.601562 Z M 9.640625 18.558594 C 9.640625 19.039062 9.238281 19.398438 8.800781 19.398438 L 2.441406 19.398438 C 1.960938 19.398438 1.601562 19.039062 1.601562 18.558594 L 1.601562 17 L 9.640625 17 Z M 22.441406 18.558594 C 22.441406 19.039062 22.039062 19.398438 21.601562 19.398438 L 15.238281 19.398438 C 14.761719 19.398438 14.398438 19 14.398438 18.558594 L 14.398438 17 L 22.441406 17 Z M 23.199219 16.039062 C 23.199219 16.121094 23.121094 16.199219 23.039062 16.199219 L 0.960938 16.199219 C 0.878906 16.199219 0.800781 16.121094 0.800781 16.039062 L 0.800781 15.558594 C 0.800781 15.480469 0.878906 15.398438 0.960938 15.398438 L 23.039062 15.398438 C 23.121094 15.398438 23.199219 15.480469 23.199219 15.558594 Z M 23.199219 16.039062"/>
</svg>

<svg xmlns="http://www.w3.org/2000/svg" width="32" height="32" viewBox="0 0 24 24">
    <path d="M23.04 14.602h-.302l.5-3.16a.751.751 0 0 0-.16-.602.678.678 0 0 0-.23-.195l.308-2.446h.446c.238 0 .398-.16.398-.398V6.199c0-.238-.16-.398-.398-.398H23l-1.36-1.84c-.081-.082-.199-.16-.32-.16h-6.16A.413.413 0 0 0 14.8 4l-1.023 1.8H13.2c-.238 0-.398.16-.398.4v1.6c0 .24.16.4.398.4h.446l.304 2.44c-.097.051-.187.122-.27.2-.12.16-.199.36-.16.601l.5 3.16H9.946l.496-3.12a.781.781 0 0 0-.16-.602.702.702 0 0 0-.238-.195l.312-2.485h.446c.238 0 .398-.16.398-.398V6.199c0-.238-.16-.398-.398-.398h-.598L8.84 3.96c-.078-.082-.2-.16-.32-.16H2.36A.413.413 0 0 0 2 4L.977 5.8H.398C.16 5.8 0 5.96 0 6.2v1.6c0 .24.16.4.398.4h.446l.308 2.46a.774.774 0 0 0-.273.18c-.117.16-.2.36-.16.601l.504 3.16H.96c-.52 0-.961.438-.961.958v.48c0 .465.352.867.8.945v1.575c0 .921.72 1.64 1.641 1.64h6.32a1.62 1.62 0 0 0 1.637-1.64V17h3.204v1.559c0 .921.757 1.64 1.636 1.64h6.32a1.62 1.62 0 0 0 1.641-1.64v-1.575c.45-.078.801-.48.801-.945v-.48a.972.972 0 0 0-.96-.957zm.16-7.204h-9.598v-.796h.218c.055.023.114.039.18.039l8.8-.04h.4zm-7.802-2.796h5.723L22 5.8h-7.258zm6.961 3.597l-.312 2.36h-7.293l-.313-2.36zm-8.039 3.2h8.16l-.52 3.203h-7.12zM2.602 4.601H8.32L9.2 5.8H1.901zm-1.801 2h.219c.054.023.113.039.18.039L10 6.6h.398v.797H.801zm8.758 1.597l-.32 2.403H1.96l-.32-2.403zm-8.04 3.2h8.16l-.519 3.203H2.04zm8.122 7.16c0 .48-.403.84-.84.84H2.44a.82.82 0 0 1-.84-.84V17h8.04zm12.8 0c0 .48-.402.84-.84.84h-6.363a.846.846 0 0 1-.84-.84V17h8.043zm.758-2.52a.17.17 0 0 1-.16.16H.961a.17.17 0 0 1-.16-.16v-.48c0-.079.078-.16.16-.16h22.078c.082 0 .16.081.16.16zm0 0"/>
</svg>
